images/pages/security_testing/hackerone-img.svg

<svg xmlns="http://www.w3.org/2000/svg" width="120" height="120" viewBox="0 0 50 50"><defs><style>.cls-1{fill:#293052}.cls-2{fill:none;stroke:#293052;stroke-miterlimit:10;stroke-width:2.18px}</style></defs><title>icon</title><path class="cls-1" d="M25.52 15.94A2.47 2.47 0 0 0 27 14a2.52 2.52 0 0 0-.72-2.09C26.13 7 22.61 3 18.31 3s-7.77 3.91-7.92 8.77A2.51 2.51 0 0 0 9.54 14a2.46 2.46 0 0 0 1.58 2c1.3 3.31 4.14 5.51 7.19 5.51s5.92-2.22 7.21-5.57zM18.31 4.76c2.87 0 5.28 2.35 6 5.55a6.5 6.5 0 0 1-3.76-3.09l-.86-1.63-.76 1.67c-1.35 3-5 3.4-6.67 3.42.56-3.37 3.06-5.92 6.05-5.92zm0 15c-2.43 0-4.72-1.92-5.69-4.77l-.18-.53-.55-.06a.7.7 0 0 1-.6-.62.73.73 0 0 1 .38-.78l.49-.25v-.3c1.75 0 5.51-.36 7.62-3.18a7.25 7.25 0 0 0 4.7 2.87v.65l.4.21a.74.74 0 0 1 .33.72.7.7 0 0 1-.55.61l-.49.1L24 15c-1 2.82-3.25 4.75-5.69 4.75zM15 23.38a10.7 10.7 0 0 0-7.88 10.43v2h1.76v-2c0-4.32 2.77-7.74 7.22-8.91l.65-.17v-2.86H15v1.51zM22.42 25.42a10.16 10.16 0 0 1 1.69-1.14 12.84 12.84 0 0 0-2.11-.9v-1.51h-1.79v2.85l.65.17a11.55 11.55 0 0 1 1.56.53z"/><circle class="cls-2" cx="31.7" cy="35.82" r="11.18"/><path class="cls-1" d="M33 32.75l2.48-2.48a3.34 3.34 0 0 0-4.27 4.61l-5.05 5.05a1 1 0 0 0 0 1.41 1 1 0 0 0 1.41 0l5.05-5.05A3.34 3.34 0 0 0 37.25 32l-2.48 2.5z"/></svg>

<svg xmlns="http://www.w3.org/2000/svg" width="120" height="120" viewBox="0 0 50 50"><defs><style>.cls-1{fill:#293052;}.cls-2{fill:none;stroke:#293052;stroke-miterlimit:10;stroke-width:2.18px;}</style></defs><title>icon</title><path class="cls-1" d="M25.52,15.94A2.47,2.47,0,0,0,27,14a2.52,2.52,0,0,0-.72-2.09C26.13,7,22.61,3,18.31,3s-7.77,3.91-7.92,8.77A2.51,2.51,0,0,0,9.54,14a2.46,2.46,0,0,0,1.58,2c1.3,3.31,4.14,5.51,7.19,5.51S24.23,19.29,25.52,15.94ZM18.31,4.76c2.87,0,5.28,2.35,6,5.55a6.5,6.5,0,0,1-3.76-3.09L19.69,5.59,18.93,7.26c-1.35,3-5,3.4-6.67,3.42C12.82,7.31,15.32,4.76,18.31,4.76Zm0,15c-2.43,0-4.72-1.92-5.69-4.77l-0.18-.53-0.55-.06a0.7,0.7,0,0,1-.6-0.62A0.73,0.73,0,0,1,11.67,13l0.49-.25V12.45c1.75,0,5.51-.36,7.62-3.18a7.25,7.25,0,0,0,4.7,2.87v0.65L24.88,13a0.74,0.74,0,0,1,.33.72,0.7,0.7,0,0,1-.55.61l-0.49.1L24,15C23,17.82,20.75,19.75,18.31,19.75Z"/><path class="cls-1" d="M15,23.38A10.7,10.7,0,0,0,7.12,33.81v2H8.88v-2c0-4.32,2.77-7.74,7.22-8.91l0.65-.17V21.87H15v1.51Z"/><path class="cls-1" d="M22.42,25.42a10.16,10.16,0,0,1,1.69-1.14A12.84,12.84,0,0,0,22,23.38V21.87H20.21v2.85l0.65,0.17A11.55,11.55,0,0,1,22.42,25.42Z"/><circle class="cls-2" cx="31.7" cy="35.82" r="11.18"/><path class="cls-1" d="M33,32.75l2.48-2.48a3.34,3.34,0,0,0-4.27,4.61l-5.05,5.05a1,1,0,0,0,0,1.41h0a1,1,0,0,0,1.41,0l5.05-5.05A3.34,3.34,0,0,0,37.25,32L34.77,34.5Z"/></svg>
